!!!OTL: SUSE LEWE SUSE
!!!ARE: Europa, Mitteleuropa, Deutschland, Westfalen, Bielefeld
!!!SCT: E1815
!!!YEM: Copyright 1995, estate of Helmut Schaffrath.
**kern
*ICvox
*Ivox
*M3/4
*k[b-]
*F:
=1
{4.cc
8dd
8cc
8b-
=2
4a
4a}
{4b-
=3
4g
4f
4g
=4
2f}
{4a
=5
4.cc
8dd
8cc
8b-
=6
4a
4a}
{4a
=7
4g
4f
4g
=8
2f
4r}
=9
{4g
4g
4g
=10
4a
4a}
{4a
=11
4b-
4b-
4a
=12
2g}
{8f
8a
=13
4.cc
8dd
8cc
8b-
=14
4a
4a}
{4a
=15
4g
4f
4g
=16
2f
4r}
==
!!!AGN: Kinder -, Wiegen -, Schlaf - Lied
!!!ONB: ESAC (Essen Associative Code) Database: ERK3
!!!AMT: simple triple
!!!AIN: vox
!!!EED: Helmut Schaffrath
!!!EEV: 1.0
*-
